X: 26614
T: Mickey Callaghan's Fancy
R: hornpipe
M: 4/4
K: Dmajor
fe|dBAB defe|dBAB defa|afbf afdf|e3f edB2|
dBAB defe|dBAB defa|afbf afdf|e2d2 d2:|:fa|
b3b bafa|a3b afdf|g3e f2ed|Beed e2fe|
dBAB defe|dBAB defa|afbf afdf|e2d2 d2:|

